Catalina-light/actions/16/edit-table-insert-row-above.svg

<svg xmlns="http://www.w3.org/2000/svg" width="16" height="16" viewBox="0 0 16 16">
 <defs>
  <style id="current-color-scheme" type="text/css">
   .ColorScheme-Text { color:#5c616c; } .ColorScheme-Highlight { color:#5294e2; }
  </style>
 </defs>
 <path style="fill:currentColor" class="ColorScheme-Text" d="M 2 1 L 2 2 L 4.28125 2 L 6 3.71875 L 7 4.71875 L 7.28125 5 L 4.71875 5 L 3 3.28125 L 2 2.28125 L 2 3.71875 L 3 4.71875 L 3.28125 5 L 2 5 L 2 6 L 9 6 L 9 5 L 8.71875 5 L 7 3.28125 L 6 2.28125 L 5.71875 2 L 8.28125 2 L 9 2.71875 L 9 1 L 2 1 z M 12 1 L 10 5 L 14 5 L 12 1 z M 1 7 L 1 15 L 15 15 L 15 7 L 13 7 L 13 9 L 11 9 L 11 7 L 9 7 L 9 9 L 7 9 L 7 7 L 5 7 L 5 9 L 3 9 L 3 7 L 1 7 z M 3 11 L 5 11 L 5 13 L 3 13 L 3 11 z M 7 11 L 9 11 L 9 13 L 7 13 L 7 11 z M 11 11 L 13 11 L 13 13 L 11 13 L 11 11 z"/>
</svg>

<svg width="16" height="16" viewBox="0 0 16 16" xmlns="http://www.w3.org/2000/svg">
<defs>
<style id="current-color-scheme" type="text/css">.ColorScheme-Text { color:#5c616c; } .ColorScheme-Highlight { color:#5294e2; }</style>
</defs>
<path class="ColorScheme-Text" d="m2 1v1h2.2812l3 3h-2.5625l-2.7188-2.7188v1.4375l1.2812 1.2812h-1.2812v1h7v-1h-0.28125l-3-3h2.5625l0.71875 0.71875v-1.7188h-7zm10 0-2 4h4l-2-4zm-11 6v8h14v-8h-2v2h-2v-2h-2v2h-2v-2h-2v2h-2v-2h-2zm2 4h2v2h-2v-2zm4 0h2v2h-2v-2zm4 0h2v2h-2v-2z" fill="currentColor"/>
</svg>
